modules/hawcons-filled/icons/printer.svg

<?xml version="1.0" encoding="UTF-8" standalone="no"?>
<svg width="32px" height="32px" viewBox="0 0 32 32" version="1.1" xmlns="http://www.w3.org/2000/svg" xmlns:xlink="http://www.w3.org/1999/xlink" xmlns:sketch="http://www.bohemiancoding.com/sketch/ns">
    <!-- Generator: Sketch 3.0.3 (7891) - http://www.bohemiancoding.com/sketch -->
    <title>icon 123 printer</title>
    <desc>Created with Sketch.</desc>
    <defs></defs>
    <g id="Page-1" stroke="none" stroke-width="1" fill="none" fill-rule="evenodd" sketch:type="MSPage">
        <g id="icon-123-printer" sketch:type="MSArtboardGroup" fill="#929292">
            <path d="M7,9 L7,2.9973917 C7,1.89585781 7.89427625,1 8.99742191,1 L24.0025781,1 C25.1090746,1 26,1.89426273 26,2.9973917 L26,9 L7,9 L7,9 Z M6,25 L4.99428189,25 C3.3405687,25 2,23.6571128 2,22.0005775 L2,12.9994225 C2,11.3443507 3.34058566,10 4.99428189,10 L28.0057181,10 C29.6594313,10 31,11.3428872 31,12.9994225 L31,22.0005775 C31,23.6556493 29.6594143,25 28.0057181,25 L27,25 L27,20 L6,20 L6,25 L6,25 L6,25 Z M7,21 L7,29.000385 C7,30.1047419 7.89092539,31 8.99742191,31 L24.0025781,31 C25.1057238,31 26,30.1125667 26,29.000385 L26,21 L7,21 L7,21 Z M25,16 C25.5522848,16 26,15.5522848 26,15 C26,14.4477152 25.5522848,14 25,14 C24.4477152,14 24,14.4477152 24,15 C24,15.5522848 24.4477152,16 25,16 L25,16 Z" id="printer" sketch:type="MSShapeGroup"></path>
        </g>
    </g>
</svg>

<svg width="32" height="32" viewBox="0 0 32 32" xmlns="http://www.w3.org/2000/svg"><path d="M7 9V2.997C7 1.896 7.894 1 8.997 1h15.006C25.109 1 26 1.894 26 2.997V9H7zM6 25H4.994A2.997 2.997 0 0 1 2 22v-9c0-1.656 1.34-3 2.994-3h23.012A2.997 2.997 0 0 1 31 13v9c0 1.656-1.34 3-2.994 3H27v-5H6v5zm1-4v8c0 1.105.89 2 1.997 2h15.006A1.994 1.994 0 0 0 26 29v-8H7zm18-5a1 1 0 1 0 0-2 1 1 0 0 0 0 2z" fill="#929292" fill-rule="evenodd"/></svg>
